X: 116
T:Waltz. JaW.116
M:3/4
L:1/8
Q:1/4=120
C:"M Caiuis()"
S:James Winder Ms, Lancashire, 1835-41
R:Waltz
O:England
A:Wyresdale,Lancashire
H:1/8
Z:vmp.Chris Partington, Aug 2004
K:Eb
B2|B4 ((3eBG) |E4 ((3EFG) |A4 ((3cAF) |E2C2B,2|!
E2EGEB,|E2EGEB,|EGBGAF|E2E2:|!
|:B2|eBGBeB|eBGBeB|dBFBdB|e4(E/F/G/A/)|!
B4(A/G/F/E/)|c4ec|BGEGFD|E4:|!
|:F2|(3DFB (3DFB (3DFB |(3EGB (3EGB (3EGB |\
(3F=Ac (3ecA (3FAc |(3Bdc (3BAG (3FGE|!
(3DFB (3DFB (3DFB |(3EGB (3EGB (3EGB |\
(3F=Ac (3ecA (3FG=A|B4:|]
